common/svg/credential-icon.svg

<svg fill="none" height="21" viewBox="0 0 20 21" width="20" xmlns="http://www.w3.org/2000/svg" xmlns:xlink="http://www.w3.org/1999/xlink"><clipPath id="a"><path d="m0 .5h20v20h-20z"/></clipPath><g clip-path="url(#a)"><path d="m11.327 11.4262h.75v-1.54651l-1.2144.95761zm-6.18668.0002.46436-.589-1.21436-.95747v1.54647zm0 7.5135h-.75v1.3912l1.16224-.7647zm1.56315-1.0285.40827-.6292-.4111-.2667-.40941.2693zm1.58488 1.0285-.40828.6291.4511.2928.42202-.3333zm1.30225-1.0285.38221-.6453-.443-.2624-.40406.3191zm1.7364 1.0285-.3822.6453 1.1322.6706v-1.3159zm-.4644-8.1026c-.7235.5705-1.6355.9105-2.62902.9105v1.5c1.34238 0 2.57922-.461 3.55782-1.2327zm-2.62902.9105c-.99345 0-1.90542-.34-2.6289-.9104l-.92872 1.1779c.97861.7716 2.21534 1.2325 3.55762 1.2325zm-2.34326 7.1921v-7.5135h-1.5v7.5135zm.40091-1.6551-1.56315 1.0285.82448 1.2531 1.56315-1.0285zm2.40539 1.0259-1.58488-1.0285-.81655 1.2583 1.58488 1.0285zm.42913-.9879-1.30225 1.0285.92969 1.1772 1.30221-1.0285zm2.58345.9718-1.73639-1.0285-.76443 1.2906 1.73642 1.0285zm-1.1322-6.8684v7.5137h1.5v-7.5137z" fill="#000"/><path clip-rule="evenodd" d="m2 2.25h16c.1381 0 .25.11193.25.25v11.4738c0 .1381-.1119.25-.25.25h-6.6732v1.75h6.6732c1.1046 0 2-.8954 2-2v-11.4738c0-1.10457-.8954-2-2-2h-16c-1.104569 0-2 .89543-2 2v11.4738c0 1.1046.895431 2 2 2h3.14014v-1.75h-3.14014c-.13807 0-.25-.1119-.25-.25v-11.4738c0-.13807.11193-.25.25-.25z" fill="#000" fill-rule="evenodd"/><circle cx="8.23358" cy="8.29169" r="4" stroke="#000" stroke-width="2"/></g></svg>

<svg width="20" height="21" viewBox="0 0 20 21" fill="none" xmlns="http://www.w3.org/2000/svg">
<g clip-path="url(#clip0)">
<path d="M11.327 11.4262H12.077V9.87969L10.8626 10.8373L11.327 11.4262ZM5.14032 11.4264L5.60468 10.8374L4.39032 9.87993V11.4264H5.14032ZM5.14032 18.9399H4.39032V20.3311L5.55256 19.5664L5.14032 18.9399ZM6.70347 17.9114L7.11174 17.2822L6.70064 17.0155L6.29123 17.2848L6.70347 17.9114ZM8.28835 18.9399L7.88007 19.569L8.33117 19.8618L8.75319 19.5285L8.28835 18.9399ZM9.5906 17.9114L9.97281 17.2661L9.52981 17.0037L9.12575 17.3228L9.5906 17.9114ZM11.327 18.9399L10.9448 19.5852L12.077 20.2558V18.9399H11.327ZM10.8626 10.8373C10.1391 11.4078 9.2271 11.7478 8.23358 11.7478V13.2478C9.57596 13.2478 10.8128 12.7868 11.7914 12.0151L10.8626 10.8373ZM8.23358 11.7478C7.24013 11.7478 6.32816 11.4078 5.60468 10.8374L4.67596 12.0153C5.65457 12.7869 6.8913 13.2478 8.23358 13.2478V11.7478ZM5.89032 18.9399V11.4264H4.39032V18.9399H5.89032ZM6.29123 17.2848L4.72808 18.3133L5.55256 19.5664L7.11571 18.5379L6.29123 17.2848ZM8.69662 18.3107L7.11174 17.2822L6.29519 18.5405L7.88007 19.569L8.69662 18.3107ZM9.12575 17.3228L7.8235 18.3513L8.75319 19.5285L10.0554 18.5L9.12575 17.3228ZM11.7092 18.2946L9.97281 17.2661L9.20838 18.5567L10.9448 19.5852L11.7092 18.2946ZM10.577 11.4262V18.9399H12.077V11.4262H10.577Z" fill="black"/>
<path fill-rule="evenodd" clip-rule="evenodd" d="M2 2.25H18C18.1381 2.25 18.25 2.36193 18.25 2.5V13.9738C18.25 14.1119 18.1381 14.2238 18 14.2238H11.3268V15.9738H18C19.1046 15.9738 20 15.0784 20 13.9738V2.5C20 1.39543 19.1046 0.5 18 0.5H2C0.895431 0.5 0 1.39543 0 2.5V13.9738C0 15.0784 0.895431 15.9738 2 15.9738H5.14014V14.2238H2C1.86193 14.2238 1.75 14.1119 1.75 13.9738V2.5C1.75 2.36193 1.86193 2.25 2 2.25Z" fill="black"/>
<circle cx="8.23358" cy="8.29169" r="4" stroke="black" stroke-width="2"/>
</g>
<defs>
<clipPath id="clip0">
<rect width="20" height="20" fill="white" transform="translate(0 0.5)"/>
</clipPath>
</defs>
</svg>
